X:19009
T:Shandon Bells
R:Jig
C:Trad.
O:Cork, Ireland
M:6/8
L:1/8
Q:1/4=120
K:D
B|:"D"AFD DFA|ded "A7"cBA|"G"BGE E2G|"A7"B2A Bcd|
"D"AFD DFA|ded "A7"cBA|"G"Bcd "A7"ecA|1"D"d3 d2B:|2"D"d3 d2g|:
"D"f2d ded|faa afd|"A7"cAA eAA|cAc efg|
"D"f2d ded|faa afd|"G"Bcd "A7"ecA|"D"d2d d3:|
